X: 5847
T: Calliope House
R: jig
M: 6/8
K: Gmajor
|:"D"dAA fAA|eAf fed|"Em"BeB e2d|"A"efd B3|"D"AAF AAD|
"D"A2 B d2 e|1 "D" faf "G"fed|"A"e3 edB:|2 "D"faf "A"fed|"D"d3 "D"def||
|:"D"a3 "D"faa|"D"eaa "D"def|"C"g3 "C"fgf|"G"egd "G"B3|"D"AAF "D"AAD|
"D"A2 B "D"d2 e|1 "D"faf "G"fed|"A" e3 "A"efg:|2 "D"faf "A"gfe|"D"d3 "G"[d3F]||

